fs/table_stack_right_28_regular.svg

<svg viewBox="0 0 28 28" fill="none" xmlns="http://www.w3.org/2000/svg" height="1em" width="1em">
  <path d="M3 21.25C3 23.3211 4.67893 25 6.75 25L17.5 25C18.0523 25 18.5 24.5523 18.5 24L18.5 4.00003C18.5 3.44775 18.0523 3.00003 17.5 3.00003L6.75 3.00003C4.67893 3.00003 3 4.67896 3 6.75003L3 21.25ZM17 9.50003L11 9.50003L11 4.50003L17 4.50003L17 9.50003ZM11 11L17 11L17 17H11L11 11ZM9.5 9.50003L4.5 9.50003L4.5 6.75003C4.5 5.50739 5.50736 4.50003 6.75 4.50003L9.5 4.50003L9.5 9.50003ZM4.5 11H9.5L9.5 17H4.5L4.5 11ZM4.5 21.25L4.5 18.5H9.5L9.5 23.5H6.75C5.50736 23.5 4.5 22.4927 4.5 21.25ZM11 23.5L11 18.5H17L17 23.5H11ZM25 3.75003C25 3.33582 24.6642 3.00003 24.25 3.00003C23.8358 3.00003 23.5 3.33582 23.5 3.75003L23.5 24.25C23.5 24.6642 23.8358 25 24.25 25C24.6642 25 25 24.6642 25 24.25L25 3.75003Z" fill="#212121"/>
</svg>

<svg viewBox="0 0 28 28" fill="none" xmlns="http://www.w3.org/2000/svg" height="1em" width="1em">
  <path d="M3 21.25A3.75 3.75 0 0 0 6.75 25H17.5a1 1 0 0 0 1-1V4a1 1 0 0 0-1-1H6.75A3.75 3.75 0 0 0 3 6.75v14.5ZM17 9.5h-6v-5h6v5ZM11 11h6v6h-6v-6ZM9.5 9.5h-5V6.75A2.25 2.25 0 0 1 6.75 4.5H9.5v5Zm-5 1.5h5v6h-5v-6Zm0 10.25V18.5h5v5H6.75a2.25 2.25 0 0 1-2.25-2.25ZM11 23.5v-5h6v5h-6ZM25 3.75a.75.75 0 0 0-1.5 0v20.5a.75.75 0 0 0 1.5 0V3.75Z" fill="#212121"/>
</svg>
